X:59
T:Garrett Barry's
M:6/8
L:1/8
R:Jig
K:D Dorian
|:A|"Dm"DEF "G"~G3|"Am"AGE "C"c2A|"Dm"dcA d2e|"Dm"fed "C"cAG|!
"Dm"~F3 "G"GFG|"Am"AGE "C"cde|"Dm"dcA "C"GEA|"Dm"DED {E}D2:|!
|:d|{e}"Dm"dcA d2e|"Dm"fed "C"efe|"Dm"dcA "C"c2d|"C"egc "Am"ecA|!
{e}"Dm"dcA d2e|"Dm"fed "C"efe|"Dm"dcA "C"GEA|"Dm"DED {E}D2:|

